X: 43
T: Surely you Jest!
C: Armand Aromin
H: 5/11/05
M: 6/8
L: 1/8
R: Jig
K: Dmaj
DFA dfa | gec ABc | dcd AFD | GFG E3 |
DFA dfa | gec ABc | dfa gec |1 AGE D2 A, :|2 AGE D2 A |]
dfa afd | dfa afd | ceg gec | ceg gec |
fed gfe | agf bag | fed Adc |1 dAF D2 A :|2 dAG D2 A, |]
1 comment|post a comment
